icons/svg/vigil.svg

<svg xmlns="http://www.w3.org/2000/svg" viewBox="0 0 350 350"><switch><g><path fill="#fff" d="M273 60.146h18v230h-18z"/><path d="M273 68.521h9v212h-9z"/><path d="M291 133.25l-18 5.438v4.062l18-6.875z"/><path fill="#fff" d="M251.5 60.146h20v230h-20z"/><path d="M251.5 68.521h20v9h-20zM251.5 271.521h20v9h-20z"/><linearGradient id="vigil-a" gradientUnits="userSpaceOnUse" x1="261.5" y1="77.521" x2="261.5" y2="271.521"><stop offset="0" stop-color="#fff"/><stop offset="1" stop-color="#c5cfd1"/></linearGradient><path fill="url(#vigil-a)" d="M251.5 77.521h20v194h-20z"/><path d="M251.5 144.875l20-5.5v4.563l-6 2.688a34.47 34.47 0 01-4.375 12.938 34.488 34.488 0 01-9.625 10.625v-25.314z"/><path fill="#fff" d="M230 56.76h20v230h-20z"/><path d="M230 66.875h20v9h-20zM230 268.188h20v9h-20z"/><linearGradient id="vigil-b" gradientUnits="userSpaceOnUse" x1="240" y1="75.875" x2="240" y2="268.188"><stop offset="0" stop-color="#fff"/><stop offset="1" stop-color="#c5cfd1"/></linearGradient><path fill="url(#vigil-b)" d="M230 75.875h20v192.313h-20z"/><path d="M230 146.5l20-5.25v27a34.785 34.785 0 01-6.75 4.063c-5.242 2.391-10.051 3-13.25 3.125V146.5z"/><g><path fill="#fff" d="M208.5 56.76h20v230h-20z"/><path d="M208.5 66.875h20v9h-20zM208.5 268.188h20v9h-20z"/><linearGradient id="vigil-c" gradientUnits="userSpaceOnUse" x1="218.5" y1="75.875" x2="218.5" y2="268.188"><stop offset="0" stop-color="#fff"/><stop offset="1" stop-color="#c5cfd1"/></linearGradient><path fill="url(#vigil-c)" d="M208.5 75.875h20v192.313h-20z"/><path d="M208.5 152.188l20-5.688v29c-2.753.3-6.77.412-11.438-.625a35.116 35.116 0 01-8.563-3.115l.001-19.572z"/></g><g><path fill="#fff" d="M187 72.167h20v230h-20z"/><path d="M187 81h20v9h-20zM187 284.125h20v9h-20z"/><linearGradient id="vigil-d" gradientUnits="userSpaceOnUse" x1="197" y1="90" x2="197" y2="284.125"><stop offset="0" stop-color="#fff"/><stop offset="1" stop-color="#c5cfd1"/></linearGradient><path fill="url(#vigil-d)" d="M187 90h20v194.125h-20z"/><path d="M187 159.375l4.625 12.385L207 167.958v20.458A40.32 40.32 0 01193 175l-6 2.5v-18.125z"/></g><g><path fill="#fff" d="M165.417 75h20v230h-20z"/><path d="M165.417 84.875h20v9h-20zM165.583 287.01h20v9h-20z"/><linearGradient id="vigil-e" gradientUnits="userSpaceOnUse" x1="175.5" y1="93.875" x2="175.5" y2="287.01"><stop offset="0" stop-color="#fff"/><stop offset="1" stop-color="#c5cfd1"/></linearGradient><path fill="url(#vigil-e)" d="M165.417 93.875h20.167V287.01h-20.167z"/></g><g><path fill="#fff" d="M143.99 70.438h20v230h-20z"/><path d="M144.01 281.635h20v9h-20z"/><linearGradient id="vigil-f" gradientUnits="userSpaceOnUse" x1="154" y1="88.5" x2="154" y2="281.635"><stop offset="0" stop-color="#fff"/><stop offset="1" stop-color="#c5cfd1"/></linearGradient><path fill="url(#vigil-f)" d="M143.99 88.5h20.021v193.135H143.99z"/><path d="M143.99 79.5h20v9h-20zM143.99 164.875l13.635 4.375 6.385-12.625v17.5l-6.135-2.094a23.29 23.29 0 01-3.75 7.469c-3.539 4.682-7.964 6.801-10.135 7.667v-22.292z"/></g><g><path fill="#fff" d="M122.563 63.406h20v230h-20z"/><path d="M122.563 72.313h20v9h-20zM122.563 274.313h20v9h-20z"/><linearGradient id="vigil-g" gradientUnits="userSpaceOnUse" x1="132.5" y1="81.313" x2="132.5" y2="274.313"><stop offset="0" stop-color="#fff"/><stop offset="1" stop-color="#c5cfd1"/></linearGradient><path fill="url(#vigil-g)" d="M122.438 81.313h20.125v193h-20.125z"/><path d="M122.438 152.125l20.125 5.125v21.625a107.177 107.177 0 01-20.126 1.389l.001-28.139z"/></g><g><path fill="#fff" d="M101 59.938h20v230h-20z"/><path d="M101 69.563h20v9h-20zM101 272.563h20v9h-20z"/><linearGradient id="vigil-h" gradientUnits="userSpaceOnUse" x1="111" y1="78.563" x2="111" y2="272.563"><stop offset="0" stop-color="#fff"/><stop offset="1" stop-color="#c5cfd1"/></linearGradient><path fill="url(#vigil-h)" d="M101 78.563h20v194h-20z"/><path d="M101 144.875l20 5.625v27.906a39.593 39.593 0 01-12-2.781 39.472 39.472 0 01-8-4.375v-26.375z"/></g><g><path fill="#fff" d="M79.5 65.042h20v230h-20z"/><path d="M79.5 74.063h20v9h-20zM79.5 276.25h20v9h-20z"/><linearGradient id="vigil-i" gradientUnits="userSpaceOnUse" x1="89.5" y1="83.063" x2="89.5" y2="276.25"><stop offset="0" stop-color="#fff"/><stop offset="1" stop-color="#c5cfd1"/></linearGradient><path fill="url(#vigil-i)" d="M79.5 83.063h20v193.188h-20z"/><path d="M79.5 144.75l20 5.375v25.438c-2.807-1.797-8.981-6.323-12.25-14.563a29.502 29.502 0 01-2-8.875l-5.75-3v-4.375z"/></g><g><path fill="#fff" d="M60 59.958h18v230H60z"/><path d="M69 68.583h9v212h-9z"/><path d="M60 134.125l18 6.625v6.625l-18-11.5v-1.75z"/></g></g></switch></svg>

<svg xmlns="http://www.w3.org/2000/svg" viewBox="0 0 350 350"><switch><g><path fill="#fff" d="M273 60.146H291V290.146H273z"/><path d="M273 68.521H282V280.521H273z"/><path d="M291 133.25L273 138.688 273 142.75 291 135.875z"/><path fill="#fff" d="M251.5 60.146H271.5V290.146H251.5z"/><path d="M251.5 68.521H271.5V77.521H251.5zM251.5 271.521H271.5V280.521H251.5z"/><linearGradient id="a" gradientUnits="userSpaceOnUse" x1="261.5" y1="77.521" x2="261.5" y2="271.521"><stop offset="0" stop-color="#fff"/><stop offset="1" stop-color="#c5cfd1"/></linearGradient><path fill="url(#a)" d="M251.5 77.521H271.5V271.521H251.5z"/><path d="M251.5,144.875l20-5.5c0,1.521,0,3.042,0,4.563c-2,0.896-4,1.792-6,2.688c-0.369,2.897-1.358,7.742-4.375,12.938 c-3.203,5.516-7.213,8.884-9.625,10.625C251.5,161.75,251.5,153.313,251.5,144.875z"/><path fill="#fff" d="M230 56.76H250V286.76H230z"/><path d="M230 66.875H250V75.875H230zM230 268.188H250V277.188H230z"/><linearGradient id="b" gradientUnits="userSpaceOnUse" x1="240" y1="75.875" x2="240" y2="268.188"><stop offset="0" stop-color="#fff"/><stop offset="1" stop-color="#c5cfd1"/></linearGradient><path fill="url(#b)" d="M230 75.875H250V268.188H230z"/><path d="M230,146.5l20-5.25v27c-1.738,1.335-3.982,2.8-6.75,4.063c-5.242,2.391-10.051,3-13.25,3.125 C230,165.792,230,156.146,230,146.5z"/><path fill="#fff" d="M208.5 56.76H228.5V286.76H208.5z"/><path d="M208.5 66.875H228.5V75.875H208.5zM208.5 268.188H228.5V277.188H208.5z"/><linearGradient id="c" gradientUnits="userSpaceOnUse" x1="218.5" y1="75.875" x2="218.5" y2="268.188"><stop offset="0" stop-color="#fff"/><stop offset="1" stop-color="#c5cfd1"/></linearGradient><path fill="url(#c)" d="M208.5 75.875H228.5V268.188H208.5z"/><path d="M208.5,152.188l20-5.688v29c-2.753,0.3-6.77,0.412-11.438-0.625c-3.565-0.792-6.45-2.018-8.563-3.115 C208.5,165.236,208.5,158.712,208.5,152.188z"/><path fill="#fff" d="M187 72.167H207V302.16700000000003H187z"/><path d="M187 81H207V90H187zM187 284.125H207V293.125H187z"/><linearGradient id="d" gradientUnits="userSpaceOnUse" x1="197" y1="90" x2="197" y2="284.125"><stop offset="0" stop-color="#fff"/><stop offset="1" stop-color="#c5cfd1"/></linearGradient><path fill="url(#d)" d="M187 90H207V284.125H187z"/><path d="M187,159.375l4.625,12.385L207,167.958v20.458c-2.184-1.254-4.902-3.086-7.667-5.708 c-2.906-2.756-4.946-5.513-6.333-7.708c-2,0.833-4,1.667-6,2.5V159.375z"/><path fill="#fff" d="M165.417 75H185.417V305H165.417z"/><path d="M165.417 84.875H185.417V93.875H165.417zM165.583 287.01H185.583V296.01H165.583z"/><linearGradient id="e" gradientUnits="userSpaceOnUse" x1="175.5" y1="93.875" x2="175.5" y2="287.01"><stop offset="0" stop-color="#fff"/><stop offset="1" stop-color="#c5cfd1"/></linearGradient><path fill="url(#e)" d="M165.417 93.875H185.584V287.01H165.417z"/><path fill="#fff" d="M143.99 70.438H163.99V300.438H143.99z"/><path d="M144.01 281.635H164.01V290.635H144.01z"/><linearGradient id="f" gradientUnits="userSpaceOnUse" x1="154" y1="88.5" x2="154" y2="281.635"><stop offset="0" stop-color="#fff"/><stop offset="1" stop-color="#c5cfd1"/></linearGradient><path fill="url(#f)" d="M143.99 88.5H164.01100000000002V281.635H143.99z"/><path d="M143.99 79.5H163.99V88.5H143.99zM143.99 164.875l13.635 4.375 6.385-12.625c0 5.833 0 11.667 0 17.5-2.045-.698-4.09-1.396-6.135-2.094-.566 1.923-1.638 4.674-3.75 7.469-3.539 4.682-7.964 6.801-10.135 7.667C143.99 179.736 143.99 172.306 143.99 164.875z"/><path fill="#fff" d="M122.563 63.406H142.563V293.406H122.563z"/><path d="M122.563 72.313H142.563V81.313H122.563zM122.563 274.313H142.563V283.313H122.563z"/><linearGradient id="g" gradientUnits="userSpaceOnUse" x1="132.5" y1="81.313" x2="132.5" y2="274.313"><stop offset="0" stop-color="#fff"/><stop offset="1" stop-color="#c5cfd1"/></linearGradient><path fill="url(#g)" d="M122.438 81.313H142.563V274.313H122.438z"/><path d="M122.438,152.125l20.125,5.125v21.625c-3.42,0.563-7.206,1.016-11.313,1.25c-3.125,0.178-6.072,0.209-8.813,0.139 C122.438,170.885,122.438,161.505,122.438,152.125z"/><path fill="#fff" d="M101 59.938H121V289.938H101z"/><path d="M101 69.563H121V78.563H101zM101 272.563H121V281.563H101z"/><linearGradient id="h" gradientUnits="userSpaceOnUse" x1="111" y1="78.563" x2="111" y2="272.563"><stop offset="0" stop-color="#fff"/><stop offset="1" stop-color="#c5cfd1"/></linearGradient><path fill="url(#h)" d="M101 78.563H121V272.563H101z"/><path d="M101,144.875l20,5.625v27.906c-3.049-0.22-7.294-0.877-12-2.781c-3.316-1.342-5.983-2.947-8-4.375 C101,162.458,101,153.667,101,144.875z"/><path fill="#fff" d="M79.5 65.042H99.5V295.04200000000003H79.5z"/><path d="M79.5 74.063H99.5V83.063H79.5zM79.5 276.25H99.5V285.25H79.5z"/><linearGradient id="i" gradientUnits="userSpaceOnUse" x1="89.5" y1="83.063" x2="89.5" y2="276.25"><stop offset="0" stop-color="#fff"/><stop offset="1" stop-color="#c5cfd1"/></linearGradient><path fill="url(#i)" d="M79.5 83.063H99.5V276.251H79.5z"/><path d="M79.5,144.75l20,5.375v25.438c-2.807-1.797-8.981-6.323-12.25-14.563c-1.333-3.359-1.834-6.455-2-8.875 c-1.917-1-3.833-2-5.75-3V144.75z"/><path fill="#fff" d="M60 59.958H78V289.95799999999997H60z"/><path d="M69 68.583H78V280.58299999999997H69z"/><path d="M60,134.125l18,6.625c0,2.208,0,4.417,0,6.625c-6-3.833-12-7.667-18-11.5V134.125z"/></g></switch></svg>
